X: 11460
T: Ebb Tide, The
R: reel
M: 4/4
K: Eminor
d^c|:BE E2 EDBA|D2FE DA A2|BEED EFGA|B2 e^c dBA=c|
BE E2 EDBA|D2FE DA A2|BEED EFGA|BdAF GE E2:|
|:g2 eg bgeg|f2 df afdf|g2 eg bgeg|fgaf ge e2|
g3a bgeg|fd d2 Adfd|g3a bgaf|gfed Bdef|
gbeg begb|f2df afdf|g2eg bgeg|fgaf ge e2|
g2eg bgeg|fd d2 Adfd|g3a bgaf|gfed BdAF||

